P2
28 28
255
0 0 0 0 0 0 0 11 142 200 106 0 0 0 0 0 0 0 85 185 112 0 0 0 0 0 0 0 
0 0 0 0 0 0 152 214 217 194 236 216 187 149 135 153 211 217 231 205 217 188 34 0 0 0 0 0 
0 0 0 0 0 66 185 166 180 181 190 211 221 197 146 198 206 191 168 190 172 188 175 0 0 0 0 0 
0 0 0 0 0 135 153 160 175 180 170 186 187 190 188 190 187 174 195 185 174 161 175 59 0 0 0 0 
0 0 0 0 0 161 147 160 170 178 177 180 168 173 174 171 185 184 185 172 171 164 174 120 0 0 0 0 
0 0 0 0 2 175 146 145 168 178 181 185 180 184 178 179 187 191 193 190 181 171 172 158 0 0 0 0 
0 0 0 0 35 177 155 140 151 172 191 187 186 187 186 187 182 191 194 188 180 161 161 185 0 0 0 0 
0 0 0 0 59 170 153 141 120 154 160 161 172 168 166 161 165 172 170 164 139 149 162 166 21 0 0 0 
0 0 0 0 79 145 160 214 123 128 153 160 164 158 157 154 155 170 165 141 195 193 152 166 61 0 0 0 
0 0 0 0 100 157 225 245 175 113 174 158 158 160 155 160 164 178 188 135 185 240 201 172 108 0 0 0 
0 0 0 0 0 31 174 28 126 153 166 152 158 158 160 161 157 168 191 188 18 132 159 7 0 0 0 0 
0 0 0 0 0 0 0 0 82 187 159 153 157 158 162 164 164 154 187 190 0 0 0 0 0 0 0 0 
0 0 0 0 1 3 5 0 37 175 158 155 162 158 160 162 165 153 177 205 0 0 3 3 0 0 0 0 
0 0 0 0 0 0 1 0 25 175 152 160 158 161 160 164 164 161 166 200 0 0 1 0 0 0 0 0 
0 0 0 0 0 0 4 0 30 171 147 164 155 165 161 165 162 170 164 162 0 0 2 0 0 0 0 0 
0 0 0 0 0 0 4 0 57 166 155 164 166 161 161 164 167 165 165 162 28 0 3 0 0 0 0 0 
0 0 0 0 0 0 3 0 114 161 161 166 159 168 161 161 172 162 165 171 50 0 5 0 0 0 0 0 
0 0 0 0 0 0 1 0 149 157 167 172 159 172 164 161 172 170 160 171 89 0 4 0 0 0 0 0 
0 0 0 0 0 2 0 4 171 164 166 173 159 179 166 160 174 167 162 166 128 0 2 0 0 0 0 0 
0 0 0 0 0 3 0 18 152 173 160 179 154 181 166 164 175 170 166 170 164 0 0 1 0 0 0 0 
0 0 0 0 0 4 0 47 165 172 167 185 153 187 173 165 174 179 166 166 158 5 0 3 0 0 0 0 
0 0 0 0 0 4 0 87 180 162 179 179 157 191 182 165 168 190 173 165 166 20 0 4 0 0 0 0 
0 0 0 0 0 4 0 105 187 157 194 175 161 190 184 170 158 205 177 168 171 44 0 4 0 0 0 0 
0 0 0 0 0 5 0 138 181 158 205 160 167 190 198 167 152 218 186 170 172 57 0 5 0 0 0 0 
0 0 0 0 0 5 0 135 174 167 199 155 166 201 219 165 158 218 188 167 175 56 0 7 0 0 0 0 
0 0 0 0 0 5 0 129 171 172 177 153 159 206 216 148 157 206 190 165 175 48 0 5 0 0 0 0 
0 0 0 0 0 5 0 167 187 182 198 194 200 226 240 184 206 255 197 178 179 42 0 5 0 0 0 0 
0 0 0 0 0 3 0 115 135 113 106 85 82 108 133 83 90 121 120 110 158 18 0 3 0 0 0 0 
